src/16/panel/rhythmbox-playing.svg

<svg xmlns="http://www.w3.org/2000/svg" width="16" height="16" version="1">
 <defs>
  <style id="current-color-scheme" type="text/css">
   .ColorScheme-Text { color:#dfdfdf; } .ColorScheme-Highlight { color:#4285f4; }
  </style>
 </defs>
 <path style="fill:currentColor;fill-rule:evenodd" class="ColorScheme-Text" d="M 2.5 1 C 1.669 1 1 1.669 1 2.5 L 1 13.5 C 1 14.331 1.669 15 2.5 15 L 10.5 15 C 11.331 15 12 14.331 12 13.5 L 12 2.5 C 12 1.669 11.331 1 10.5 1 L 2.5 1 z M 4 3 C 4.5524 3 5 3.4478 5 4 C 5 4.5522 4.5524 5 4 5 C 3.4476 5 2.9998 4.5522 3 4 C 2.9998 3.4478 3.4476 3 4 3 z M 9 3 C 9.552 3 10 3.4478 10 4 C 10 4.5522 9.552 5 9 5 C 8.448 5 8 4.5522 8 4 C 8 3.4478 8.448 3 9 3 z M 6.5 6 C 8.433 6 10 7.567 10 9.5 C 10 11.433 8.433 13 6.5 13 C 4.5666 13 2.9995 11.433 3 9.5 C 2.9995 7.567 4.5666 6 6.5 6 z M 6.5 8 C 5.672 8 5 8.672 5 9.5 C 5 10.328 5.672 11 6.5 11 C 7.328 11 8 10.328 8 9.5 C 8 8.672 7.328 8 6.5 8 z M 13.466797 11 C 13.210183 10.9928 12.999555 11.241874 13 11.550781 L 13 13 L 13 14.449219 C 12.999852 14.871828 13.379093 15.136283 13.683594 14.925781 L 14.728516 14.201172 L 15.771484 13.476562 C 16.075974 13.265057 16.075974 12.736896 15.771484 12.525391 L 14.728516 11.798828 L 13.683594 11.074219 C 13.617564 11.028289 13.543027 11.00236 13.466797 11 z"/>
</svg>

<svg xmlns="http://www.w3.org/2000/svg" width="16" height="16" version="1"><defs><style id="current-color-scheme" type="text/css"></style></defs><path d="M2.5 1C1.669 1 1 1.669 1 2.5v11c0 .831.669 1.5 1.5 1.5h8c.831 0 1.5-.669 1.5-1.5v-11c0-.831-.669-1.5-1.5-1.5h-8zM4 3a1 1 0 1 1 0 2 1 1 0 0 1 0-2zm5 0a1 1 0 1 1 0 2 1 1 0 0 1 0-2zM6.5 6a3.5 3.5 0 1 1 0 7 3.5 3.5 0 0 1 0-7zm0 2a1.5 1.5 0 1 0 .001 3.001A1.5 1.5 0 0 0 6.5 8zm6.967 3c-.257-.007-.467.242-.467.55v2.9c0 .422.38.686.684.476l1.045-.725 1.042-.724c.305-.212.305-.74 0-.952L14.73 11.8l-1.045-.725a.401.401 0 0 0-.217-.074z" fill="currentColor" fill-rule="evenodd" color="#bebebe"/></svg>
